brandFactory_export/1.Light/Ruta recorrido_1Light.svg

<?xml version="1.0" encoding="UTF-8"?>
<svg width="24px" height="24px" viewBox="0 0 24 24" version="1.1" xmlns="http://www.w3.org/2000/svg" xmlns:xlink="http://www.w3.org/1999/xlink">
    <title>1.Light/Ruta recorrido_1Light</title>
    <g id="Symbols" stroke="none" stroke-width="1" fill="none" fill-rule="evenodd">
        <g id="1.Light/Ruta-recorrido_1Light" fill="#5CB615" fill-rule="nonzero">
            <path d="M5.40504202,22.3865546 C6.66890756,20.9210084 9.84537815,16.6252101 9.85554913,13.9731092 C9.86218487,12.5512605 9.4789916,11.4386555 8.72268908,10.6756303 C7.96638655,9.91260504 6.8605042,9.52268908 5.43865546,9.51932773 L5.41512605,9.51932773 C4.00672269,9.51932773 2.90756303,9.89915966 2.1512605,10.6554622 C1.39159664,11.4117647 1.00168067,12.5210084 0.998294263,13.9462185 C0.988235294,16.4806723 4.02352941,20.7932773 5.40504202,22.3865546 L5.40504202,22.3865546 Z M5.44201681,8.52436975 C8.83697479,8.53445378 10.8605042,10.5747899 10.8504577,13.9798319 C10.8403361,17.5092437 6.39327731,22.8436975 5.75798319,23.4789916 C5.56638655,23.6739496 5.25042017,23.6739496 5.05546218,23.4823529 L5.05210084,23.4789916 C4.02352941,22.4436975 -0.00672268908,17.2369748 -8.40043193e-06,13.9462185 C0.00336134454,12.2689076 0.507563025,10.887395 1.44537815,9.94957983 C2.38319328,9.01512605 3.75462185,8.5210084 5.41512605,8.5210084 L5.44201681,8.52436975 Z M5.42521008,14.7092437 C6.13781513,14.7092437 6.48403361,14.3596639 6.48403361,13.6470588 C6.48403361,12.9310924 6.13781513,12.5848739 5.42521008,12.5848739 C4.71260504,12.5848739 4.36638655,12.9344538 4.36638655,13.6470588 C4.36638655,14.3596639 4.71260504,14.7092437 5.42521008,14.7092437 Z M5.42521008,11.5865546 C6.69243697,11.5865546 7.4789916,12.3764706 7.4789916,13.6470588 C7.4789916,14.9176471 6.69243697,15.707563 5.42521008,15.707563 C4.15798319,15.707563 3.37142857,14.9176471 3.37142857,13.6470588 C3.37142857,12.3764706 4.15798319,11.5865546 5.42521008,11.5865546 Z M19.8420168,9.11932773 C20.7932773,7.98655462 22.6218487,5.34453782 22.6285803,3.78823529 C22.6319328,1.9697479 21.6773109,1.00504202 19.8621849,0.998319328 L19.8453782,0.998319328 C18.9546218,0.998319328 18.2655462,1.23697479 17.794958,1.70420168 C17.3210084,2.17815126 17.0823529,2.87058824 17.0789869,3.77142857 C17.0756303,5.34117647 18.8941176,7.98319328 19.8420168,9.11932773 Z M19.8655462,0 C22.2252101,0.00672268908 23.6302521,1.42184874 23.6235534,3.78823529 C23.6168067,6.19495798 20.6184874,9.78823529 20.194958,10.2151261 C20,10.410084 19.687395,10.410084 19.492437,10.2151261 C19.0689076,9.78823529 16.0806723,6.19159664 16.0907308,3.76806723 C16.0941176,2.60840336 16.4436975,1.65042017 17.0991597,0.994957983 C17.7478992,0.346218487 18.702521,0 19.8453782,0 L19.8655462,0 Z M19.8554622,4.10756303 C20.2352941,4.10756303 20.3932773,3.95294118 20.3932773,3.5697479 C20.3932773,3.18655462 20.2386555,3.03193277 19.8554622,3.03193277 C19.4756303,3.03193277 19.3176471,3.18655462 19.3176471,3.5697479 C19.3176471,3.95294118 19.4722689,4.10756303 19.8554622,4.10756303 Z M19.8554622,2.03361345 C20.7865546,2.03361345 21.3882353,2.63529412 21.3882353,3.5697479 C21.3882353,4.50420168 20.7865546,5.10588235 19.8554622,5.10588235 C18.9243697,5.10588235 18.3226891,4.50420168 18.3226891,3.5697479 C18.3226891,2.63529412 18.9243697,2.03361345 19.8554622,2.03361345 Z M15.2436975,11.3378151 C14.9680672,11.3344538 14.7462185,11.112605 14.7462185,10.8369748 C14.7462185,10.6252101 14.8840336,10.4369748 15.0857143,10.3663866 C15.4117647,10.2554622 15.7344538,10.1613445 16.0504202,10.0773109 C16.3193277,10.0168067 16.5848739,10.1848739 16.6487395,10.4537815 C16.7058824,10.7092437 16.5579832,10.9680672 16.3058824,11.0420168 C16.0134454,11.1193277 15.707563,11.210084 15.4016807,11.3142857 C15.3512605,11.3310924 15.297479,11.3378151 15.2436975,11.3378151 L15.2436975,11.3378151 Z M16.3529412,20.6487395 C16.5983193,20.5210084 16.897479,20.6184874 17.0252101,20.8605042 C17.1529412,21.1058824 17.0554622,21.405042 16.8134454,21.5327731 C16.8067227,21.5361345 16.7966387,21.5394958 16.789916,21.5428571 C16.4941176,21.687395 16.1781513,21.8218487 15.8487395,21.9428571 C15.5932773,22.0403361 15.3042017,21.9092437 15.210084,21.6504202 C15.112605,21.3915966 15.2436975,21.1058824 15.4991597,21.0084034 C15.7983193,20.9008403 16.0840336,20.7798319 16.3529412,20.6487395 L16.3529412,20.6487395 Z M18.292437,17.902521 C18.1647059,17.902521 18.0436975,17.8554622 17.9529412,17.7680672 C17.7445378,17.5798319 17.512605,17.4252101 17.2605042,17.3008403 C17.0151261,17.1731092 16.9210084,16.8739496 17.0487395,16.6285714 C17.1764706,16.3831933 17.4756303,16.2890756 17.7210084,16.4168067 C18.1008403,16.6151261 18.4,16.8201681 18.6352941,17.0420168 C18.8369748,17.2302521 18.8436975,17.5462185 18.6554622,17.7478992 C18.5579832,17.8453782 18.4268908,17.902521 18.292437,17.902521 L18.292437,17.902521 Z M18.0907563,10.6689076 C17.8151261,10.6655462 17.5966387,10.4369748 17.6,10.1613445 C17.6033613,9.91932773 17.7815126,9.71428571 18.0235294,9.67394958 C18.2218487,9.64705882 18.3529412,9.6302521 18.389916,9.6302521 C18.6621849,9.61344538 18.897479,9.81848739 18.9142857,10.0907563 L18.9142857,10.1008403 C18.9310924,10.3764706 18.7226891,10.6117647 18.4470588,10.6285714 C18.3529412,10.6386555 18.2554622,10.6521008 18.1613445,10.6655462 C18.1378151,10.6689076 18.1142857,10.6689076 18.0907563,10.6689076 Z M18.8571429,18.7092437 C19.1159664,18.8067227 19.2436975,19.092437 19.1462185,19.3512605 C19.005042,19.7142857 18.7932773,20.0470588 18.5277311,20.3294118 C18.3495798,20.5411765 18.0369748,20.5680672 17.8252101,20.3932773 C17.6134454,20.2151261 17.5865546,19.902521 17.7613445,19.6907563 C17.7714286,19.6773109 17.7848739,19.6638655 17.7983193,19.6504202 C17.989916,19.4420168 18.1310924,19.2235294 18.2151261,19.0016807 C18.3092437,18.7462185 18.5882353,18.6151261 18.8436975,18.7058824 C18.8504202,18.7092437 18.8537815,18.7092437 18.8571429,18.7092437 L18.8571429,18.7092437 Z M15.6840336,16.6151261 C15.6268908,16.6151261 15.5697479,16.605042 15.5159664,16.5848739 C15.2033613,16.4705882 14.8907563,16.3596639 14.5882353,16.2386555 C14.3361345,16.1243697 14.2218487,15.8285714 14.3361345,15.5764706 C14.4403361,15.3411765 14.7092437,15.2235294 14.9512605,15.307563 C15.2470588,15.4252101 15.5495798,15.5361345 15.8554622,15.6436975 C16.1310924,15.6403361 16.3563025,15.8621849 16.3596639,16.1378151 C16.3630252,16.4134454 16.1411765,16.6386555 15.8655462,16.6420168 C15.8016807,16.6487395 15.7411765,16.6386555 15.6840336,16.6151261 Z M10.8605042,22.1176471 C11.1294118,22.0739496 11.3815126,22.2588235 11.4218487,22.5277311 L11.4218487,22.5378151 C11.4621849,22.810084 11.2773109,23.0621849 11.005042,23.102521 L11.0016807,23.102521 C10.6655462,23.1529412 10.3361345,23.2 10.0201681,23.2369748 C9.74789916,23.2705882 9.50252101,23.0756303 9.46554622,22.8033613 C9.43193277,22.5310924 9.62352941,22.2823529 9.89243697,22.2487395 L9.89579832,22.2487395 C10.2117647,22.2084034 10.5310924,22.1680672 10.8605042,22.1176471 Z M13.687395,21.5697479 C13.9563025,21.502521 14.2252101,21.6672269 14.292437,21.9327731 C14.3596639,22.2016807 14.194958,22.4705882 13.9294118,22.5378151 C13.610084,22.6184874 13.2840336,22.692437 12.9579832,22.7596639 C12.6890756,22.8168067 12.4235294,22.6420168 12.3697479,22.3731092 C12.312605,22.1042017 12.487395,21.8386555 12.7563025,21.7848739 C13.0655462,21.7176471 13.3781513,21.6470588 13.687395,21.5697479 Z M12.7394958,12.789916 C12.4638655,12.7865546 12.2420168,12.5613445 12.2420168,12.2857143 C12.2420168,12.1714286 12.2823529,12.0571429 12.3563025,11.9697479 C12.5714286,11.7142857 12.8537815,11.4689076 13.2033613,11.2403361 C13.4420168,11.102521 13.7478992,11.1831933 13.8857143,11.4184874 C14.0134454,11.6403361 13.9563025,11.9226891 13.7478992,12.0739496 C13.512605,12.2218487 13.3008403,12.4033613 13.1193277,12.6117647 C13.0285714,12.7260504 12.887395,12.789916 12.7394958,12.789916 L12.7394958,12.789916 Z M7.98319328,22.4403361 C8.25546218,22.4168067 8.49411765,22.6218487 8.51764706,22.8941176 L8.51764706,22.897479 C8.54117647,23.1697479 8.33613445,23.4117647 8.06386555,23.4319328 L8.0605042,23.4319328 C7.75798319,23.4554622 7.45546218,23.4756303 7.15294118,23.492437 L7.12268908,23.492437 C6.86386555,23.492437 6.60840336,23.2941176 6.58823529,23.0352941 C6.56470588,22.7630252 6.71932773,22.5310924 6.98823529,22.5008403 L7.09579832,22.4941176 C7.23361345,22.4907563 7.54621849,22.4739496 7.98319328,22.4403361 L7.98319328,22.4403361 Z M13.0554622,15.3579832 C12.9411765,15.3579832 12.8302521,15.3176471 12.7394958,15.2436975 C12.4235294,14.994958 12.1714286,14.6756303 12,14.312605 C11.8957983,14.0571429 12.0168067,13.7680672 12.2689076,13.6605042 C12.5109244,13.5596639 12.789916,13.6638655 12.9042017,13.8991597 C12.994958,14.1008403 13.1495798,14.2890756 13.3680672,14.4705882 C13.5798319,14.6453782 13.6134454,14.9579832 13.4386555,15.1697479 C13.3478992,15.2907563 13.2067227,15.3579832 13.0554622,15.3579832 L13.0554622,15.3579832 Z" id="Ruta-recorrido_1Light"></path>
        </g>
    </g>
</svg>

<svg width="24" height="24" viewBox="0 0 24 24" xmlns="http://www.w3.org/2000/svg"><path d="M5.405 22.387c1.264-1.466 4.44-5.762 4.45-8.414.007-1.422-.376-2.534-1.132-3.297-.757-.763-1.862-1.153-3.284-1.157h-.024c-1.408 0-2.507.38-3.264 1.136-.76.757-1.15 1.866-1.153 3.291-.01 2.535 3.026 6.847 4.407 8.44zm.037-13.863c3.395.01 5.419 2.05 5.408 5.456-.01 3.53-4.457 8.864-5.092 9.499a.498.498 0 01-.703.003l-.003-.003C4.024 22.444-.007 17.237 0 13.946c.003-1.677.508-3.059 1.445-3.996.938-.935 2.31-1.429 3.97-1.429l.027.003zm-.017 6.185c.713 0 1.059-.35 1.059-1.062 0-.716-.346-1.062-1.059-1.062-.712 0-1.059.35-1.059 1.062 0 .713.347 1.062 1.06 1.062zm0-3.122c1.267 0 2.054.79 2.054 2.06s-.787 2.06-2.054 2.06-2.054-.79-2.054-2.06.787-2.06 2.054-2.06zm14.417-2.468c.951-1.132 2.78-3.774 2.787-5.33.003-1.82-.952-2.784-2.767-2.79h-.017c-.89 0-1.58.238-2.05.705-.474.474-.713 1.167-.716 2.067-.003 1.57 1.815 4.212 2.763 5.348zM19.866 0c2.36.007 3.764 1.422 3.758 3.788-.007 2.407-3.006 6-3.429 6.427a.495.495 0 01-.703 0c-.423-.427-3.411-4.023-3.401-6.447.003-1.16.353-2.118 1.008-2.773C17.748.346 18.703 0 19.845 0h.02zm-.01 4.108c.38 0 .537-.155.537-.538s-.154-.538-.538-.538c-.38 0-.537.155-.537.538s.154.538.537.538zm0-2.074c.93 0 1.532.601 1.532 1.536 0 .934-.601 1.536-1.533 1.536-.93 0-1.532-.602-1.532-1.536 0-.935.601-1.536 1.532-1.536zm-4.612 9.304a.501.501 0 01-.498-.501c0-.212.138-.4.34-.47.326-.112.648-.206.964-.29a.498.498 0 01.255.965 13.59 13.59 0 00-.903.272.5.5 0 01-.158.024zm1.109 9.31a.5.5 0 01.46.885l-.023.01a10.02 10.02 0 01-.941.4.499.499 0 01-.35-.934c.3-.108.585-.23.854-.36zm1.94-2.745a.486.486 0 01-.34-.135 3.02 3.02 0 00-.692-.467.497.497 0 01-.212-.672.497.497 0 01.672-.212c.38.198.679.403.914.625a.5.5 0 01.02.706.518.518 0 01-.363.155zm-.202-7.234a.5.5 0 01-.067-.995c.198-.027.329-.044.366-.044a.493.493 0 01.524.46v.01a.497.497 0 01-.467.529 8.3 8.3 0 00-.286.037c-.023.003-.047.003-.07.003zm.766 8.04a.496.496 0 01.29.642 3.04 3.04 0 01-.62.978.5.5 0 01-.702.064.5.5 0 01-.027-.743c.192-.208.333-.426.417-.648a.493.493 0 01.629-.296c.006.003.01.003.013.003zm-3.173-2.094a.48.48 0 01-.168-.03c-.313-.114-.625-.225-.928-.346a.5.5 0 01.363-.931c.296.117.599.228.904.336a.5.5 0 01.01.998.369.369 0 01-.181-.027zm-4.823 5.503a.489.489 0 01.56.41v.01a.495.495 0 01-.416.565h-.003c-.336.05-.666.097-.982.134a.5.5 0 01-.554-.434.496.496 0 01.426-.554h.004c.316-.04.635-.08.965-.131zm2.826-.548a.5.5 0 01.242.968c-.319.08-.645.154-.971.222a.496.496 0 01-.588-.387.496.496 0 01.386-.588c.31-.067.622-.138.931-.215zm-.948-8.78a.504.504 0 01-.383-.82c.215-.256.498-.501.847-.73a.501.501 0 01.683.178.5.5 0 01-.138.656c-.235.148-.447.33-.629.538a.483.483 0 01-.38.178zm-4.756 9.65a.496.496 0 01.535.454v.003a.494.494 0 01-.454.535H8.06c-.303.023-.606.044-.908.06h-.03c-.26 0-.515-.198-.535-.457-.023-.272.131-.504.4-.534l.108-.007c.138-.003.45-.02.887-.054zm5.072-7.082a.5.5 0 01-.316-.114 2.592 2.592 0 01-.739-.931.502.502 0 01.269-.652c.242-.101.52.003.635.238.091.202.246.39.464.572a.497.497 0 01.07.699.474.474 0 01-.383.188z" fill="#5CB615" fill-rule="nonzero"/></svg>
